resources/icons/cisco/softwarebasedserver.svg

<?xml version="1.0" encoding="UTF-8"?>
<svg xmlns="http://www.w3.org/2000/svg" xmlns:xlink="http://www.w3.org/1999/xlink" width="166pt" height="200pt" viewBox="0 0 166 200" version="1.1">
<g id="surface1">
<path style=" stroke:none;fill-rule:nonzero;fill:rgb(1.176471%,41.176471%,59.607843%);fill-opacity:1;" d="M 2.511719 190.203125 L 82.332031 190.203125 L 82.332031 62.515625 L 2.511719 62.515625 Z M 2.511719 190.203125 "/>
<path style="fill:none;stroke-width:0.5;stroke-linecap:butt;stroke-linejoin:miter;stroke:rgb(100%,100%,100%);stroke-opacity:1;stroke-miterlimit:4;" d="M 19.839044 15.002812 L 0.605233 15.002812 L 0.605233 45.647813 L 19.839044 45.647813 " transform="matrix(4.15,0,0,4.166667,0,0)"/>
<path style=" stroke:none;fill-rule:nonzero;fill:rgb(1.176471%,41.176471%,59.607843%);fill-opacity:1;" d="M 82.332031 190.203125 L 107.824219 164.609375 L 107.824219 36.921875 L 28 36.921875 L 2.511719 62.515625 L 82.332031 62.515625 L 82.332031 190.203125 "/>
<path style="fill:none;stroke-width:0.5;stroke-linecap:butt;stroke-linejoin:miter;stroke:rgb(100%,100%,100%);stroke-opacity:1;stroke-miterlimit:4;" d="M 19.839044 45.647813 L 25.981739 39.50625 L 25.981739 8.860312 L 6.746988 8.860312 L 0.605233 15.002812 L 19.839044 15.002812 Z M 19.839044 45.647813 " transform="matrix(4.15,0,0,4.166667,0,0)"/>
<path style=" stroke:none;fill-rule:nonzero;fill:rgb(0%,0%,0%);fill-opacity:1;" d="M 82.332031 62.515625 L 107.824219 36.921875 "/>
<path style="fill:none;stroke-width:0.5;stroke-linecap:butt;stroke-linejoin:miter;stroke:rgb(100%,100%,100%);stroke-opacity:1;stroke-miterlimit:4;" d="M 19.839044 15.002812 L 25.981739 8.86125 M 0.913027 26.941875 L 19.663027 26.941875 M 0.913027 41.005312 L 19.663027 41.005312 M 5.288027 19.755 L 10.755836 19.755 " transform="matrix(4.15,0,0,4.166667,0,0)"/>
<path style="fill-rule:nonzero;fill:rgb(1.176471%,41.176471%,59.607843%);fill-opacity:1;stroke-width:0.5;stroke-linecap:butt;stroke-linejoin:miter;stroke:rgb(100%,100%,100%);stroke-opacity:1;stroke-miterlimit:4;" d="M 3.099586 21.63 L 12.788027 21.63 L 12.788027 17.724375 L 3.099586 17.724375 Z M 3.099586 21.63 " transform="matrix(4.15,0,0,4.166667,0,0)"/>
<path style=" stroke:none;fill-rule:nonzero;fill:rgb(1.176471%,41.176471%,59.607843%);fill-opacity:1;" d="M 165.269531 0.890625 L 162.675781 2.4375 L 61.707031 2.4375 L 64.28125 0.828125 L 165.269531 0.890625 M 165.289062 101.394531 L 165.269531 0.890625 L 162.675781 2.882812 L 162.675781 103.816406 L 165.289062 101.394531 "/>
<path style=" stroke:none;fill-rule:nonzero;fill:rgb(1.176471%,41.176471%,59.607843%);fill-opacity:1;" d="M 66.28125 103.816406 L 162.679688 103.816406 L 162.679688 2.4375 L 61.710938 2.4375 L 61.710938 99.214844 L 66.285156 103.816406 "/>
<path style="fill:none;stroke-width:0.5;stroke-linecap:butt;stroke-linejoin:miter;stroke:rgb(100%,100%,100%);stroke-opacity:1;stroke-miterlimit:4;" d="M 15.971386 24.915937 L 39.199925 24.915937 L 39.199925 0.585 L 14.870105 0.585 L 14.870105 23.811563 L 15.972327 24.915937 Z M 15.971386 24.915937 " transform="matrix(4.15,0,0,4.166667,0,0)"/>
<path style="fill:none;stroke-width:0.5;stroke-linecap:butt;stroke-linejoin:miter;stroke:rgb(100%,100%,100%);stroke-opacity:1;stroke-miterlimit:4;" d="M 37.353163 0.585 L 37.353163 14.624062 C 37.353163 15.639375 36.522967 15.449063 36.522967 15.449063 L 17.447289 15.449063 C 17.447289 15.449063 16.710279 15.540938 16.710279 14.71125 L 16.710279 0.585 M 15.243788 3.075 L 16.347892 3.075 L 16.347892 1.965 L 15.243788 1.965 Z M 37.729669 3.075 L 38.83942 3.075 L 38.83942 1.965 L 37.729669 1.965 Z M 37.729669 3.075 " transform="matrix(4.15,0,0,4.166667,0,0)"/>
<path style=" stroke:none;fill-rule:nonzero;fill:rgb(100%,100%,100%);fill-opacity:1;" d="M 138.679688 74.253906 L 138.679688 102.714844 L 78.640625 102.714844 L 78.640625 73.867188 C 78.640625 70.796875 82.085938 71.183594 82.085938 71.183594 L 135.621094 71.183594 C 139.066406 71.183594 138.675781 74.253906 138.675781 74.253906 "/>
<path style="fill:none;stroke-width:0.5;stroke-linecap:butt;stroke-linejoin:miter;stroke:rgb(1.176471%,41.176471%,59.607843%);stroke-opacity:1;stroke-miterlimit:4;" d="M 33.416792 17.82 L 33.416792 24.651563 L 18.949548 24.651563 L 18.949548 17.728125 C 18.949548 16.99125 19.779744 17.083125 19.779744 17.083125 L 32.679782 17.083125 C 33.509977 17.083125 33.415851 17.820937 33.415851 17.820937 Z M 33.416792 17.82 " transform="matrix(4.15,0,0,4.166667,0,0)"/>
<path style="fill:none;stroke-width:0.5;stroke-linecap:butt;stroke-linejoin:miter;stroke:rgb(100%,100%,100%);stroke-opacity:1;stroke-miterlimit:4;" d="M 37.353163 24.915937 L 37.353163 17.820937 C 37.353163 17.820937 37.446348 17.083125 36.616152 17.083125 L 19.800452 17.083125 C 19.800452 17.083125 18.970256 16.99125 18.970256 17.729062 L 18.970256 24.465937 " transform="matrix(4.15,0,0,4.166667,0,0)"/>
<path style="fill-rule:nonzero;fill:rgb(1.176471%,41.176471%,59.607843%);fill-opacity:1;stroke-width:0.5;stroke-linecap:butt;stroke-linejoin:miter;stroke:rgb(100%,100%,100%);stroke-opacity:1;stroke-miterlimit:4;" d="M 21.73381 24.179063 L 24.589608 24.179063 L 24.589608 17.543437 L 21.73381 17.543437 Z M 21.73381 24.179063 " transform="matrix(4.15,0,0,4.166667,0,0)"/>
<path style=" stroke:none;fill-rule:nonzero;fill:rgb(100%,100%,100%);fill-opacity:1;" d="M 131.941406 53.335938 C 137.117188 48.144531 140.027344 41.101562 140.027344 33.757812 C 140.027344 26.410156 137.117188 19.367188 131.941406 14.175781 C 121.171875 3.351562 103.699219 3.351562 92.929688 14.175781 C 87.753906 19.367188 84.84375 26.410156 84.84375 33.757812 C 84.84375 41.105469 87.753906 48.152344 92.929688 53.339844 C 98.101562 58.539062 105.117188 61.460938 112.4375 61.460938 C 119.753906 61.460938 126.769531 58.539062 131.941406 53.339844 "/>
<path style="fill:none;stroke-width:0.5;stroke-linecap:butt;stroke-linejoin:miter;stroke:rgb(100%,100%,100%);stroke-opacity:1;stroke-miterlimit:4;" d="M 39.198983 0.676875 L 39.84375 0.219375 " transform="matrix(4.15,0,0,4.166667,0,0)"/>
<path style="fill:none;stroke-width:0.625;stroke-linecap:butt;stroke-linejoin:miter;stroke:rgb(1.176471%,41.176471%,59.607843%);stroke-opacity:1;stroke-miterlimit:4;" d="M 26.239646 6.958125 L 23.060994 3.845625 " transform="matrix(4.15,0,0,4.166667,0,0)"/>
<path style=" stroke:none;fill-rule:nonzero;fill:rgb(1.176471%,41.176471%,59.607843%);fill-opacity:1;" d="M 114.730469 44.289062 L 123.042969 35.945312 L 114.042969 34.902344 L 114.734375 44.289062 M 101.78125 31 L 110.117188 22.640625 L 111.125 31.691406 L 101.785156 31 "/>
<path style="fill:none;stroke-width:0.625;stroke-linecap:butt;stroke-linejoin:miter;stroke:rgb(1.176471%,41.176471%,59.607843%);stroke-opacity:1;stroke-miterlimit:4;" d="M 31.342244 12.235312 L 28.217244 9.109687 M 27.628012 7.40625 L 29.970821 5.135625 " transform="matrix(4.15,0,0,4.166667,0,0)"/>
<path style=" stroke:none;fill-rule:nonzero;fill:rgb(1.176471%,41.176471%,59.607843%);fill-opacity:1;" d="M 120.183594 16.941406 L 128.507812 25.300781 L 129.527344 16.25 L 120.183594 16.941406 M 95.785156 41.417969 L 104.09375 49.757812 L 95.097656 50.773438 L 95.785156 41.417969 "/>
<path style="fill:none;stroke-width:0.625;stroke-linecap:butt;stroke-linejoin:miter;stroke:rgb(1.176471%,41.176471%,59.607843%);stroke-opacity:1;stroke-miterlimit:4;" d="M 23.955196 11.14125 L 26.586973 8.52 " transform="matrix(4.15,0,0,4.166667,0,0)"/>
</g>
</svg>

<svg xmlns="http://www.w3.org/2000/svg" viewBox="0 0 40 47.5" height="47.5" width="40"><path d="M.605 45.649h19.234V15.004H.605v30.645z" fill="#036998"/><path d="M19.839 15.003H.605v30.645h19.234" fill="none" stroke="#fff" stroke-width=".5"/><path d="M19.839 45.649l6.143-6.143V8.861H6.747L.605 15.004h19.234v30.645" fill="#036998"/><path d="M19.839 45.648l6.143-6.142V8.86H6.747L.605 15.003h19.234v30.645z" fill="none" stroke="#fff" stroke-width=".5"/><path d="M19.839 15.004l6.143-6.143"/><path d="M19.839 15.003l6.143-6.142M.913 26.942h18.75M.913 41.005h18.75M5.288 19.755h5.468" fill="none" stroke="#fff" stroke-width=".5"/><path d="M3.1 21.63h9.688v-3.906H3.1v3.906z" fill="#036998"/><path d="M3.1 21.63h9.688v-3.906H3.1v3.906z" fill="none" stroke="#fff" stroke-width=".5"/><path d="M39.824.214l-.625.371h-24.33l.62-.386 24.335.015M39.829 24.335L39.824.214l-.625.478v24.224l.63-.581" fill="#036998"/><path d="M15.971 24.916H39.2V.585h-24.33v23.227l1.102 1.104" fill="#036998"/><path d="M15.971 24.916H39.2V.585h-24.33v23.227l1.102 1.104z" fill="none" stroke="#fff" stroke-width=".5"/><path d="M37.353.585v14.039c0 1.015-.83.825-.83.825H17.447s-.737.092-.737-.738V.585M15.244 3.075h1.104v-1.11h-1.104v1.11zM37.73 3.075h1.109v-1.11H37.73v1.11z" fill="none" stroke="#fff" stroke-width=".5"/><path d="M33.417 17.821v6.831H18.95v-6.924c0-.737.83-.644.83-.644H32.68c.83 0 .736.737.736.737" fill="#fff"/><path d="M33.417 17.82v6.832H18.95v-6.924c0-.737.83-.645.83-.645H32.68c.83 0 .736.738.736.738z" fill="none" stroke="#036998" stroke-width=".5"/><path d="M37.353 24.916v-7.095s.093-.738-.737-.738H19.8s-.83-.092-.83.646v6.737" fill="none" stroke="#fff" stroke-width=".5"/><path d="M21.734 24.179h2.856v-6.636h-2.856v6.636z" fill="#036998"/><path d="M21.734 24.179h2.856v-6.636h-2.856v6.636z" fill="none" stroke="#fff" stroke-width=".5"/><path d="M31.793 12.801a6.642 6.642 0 0 0 0-9.399 6.644 6.644 0 0 0-9.4 0 6.642 6.642 0 0 0 0 9.4 6.643 6.643 0 0 0 9.4 0" fill="#fff"/><path d="M39.199.677l.645-.458" fill="none" stroke="#fff" stroke-width=".5"/><path d="M26.24 6.958l-3.179-3.112" fill="none" stroke="#036998" stroke-width=".625"/><path d="M27.646 10.629l2.003-2.002-2.169-.25.167 2.252M24.526 7.44l2.008-2.006.243 2.172-2.25-.166" fill="#036998"/><path d="M31.342 12.235L28.217 9.11M27.628 7.406l2.343-2.27" fill="none" stroke="#036998" stroke-width=".625"/><path d="M28.96 4.066l2.006 2.006.245-2.172-2.251.166M23.081 9.94l2.002 2.002-2.168.244.166-2.246" fill="#036998"/><path d="M23.955 11.141l2.632-2.621" fill="none" stroke="#036998" stroke-width=".625"/></svg>
